Newaita-dark/actions/16/zoom-in.svg

<svg height="16" viewBox="0 0 16 16" width="16" xmlns="http://www.w3.org/2000/svg"><g fill="#e0e0e0"><path d="m5.953125 7.402344h3.96875c.183594 0 .332031.148437.332031.332031v.660156c0 .183594-.148437.332031-.332031.332031h-3.96875c-.183594 0-.332031-.148437-.332031-.332031v-.660156c0-.183594.148437-.332031.332031-.332031zm0 0"/><path d="m8.601562 6.078125v3.96875c0 .183594-.148437.332031-.332031.332031h-.660156c-.183594 0-.332031-.148437-.332031-.332031v-3.96875c0-.183594.148437-.332031.332031-.332031h.660156c.183594 0 .332031.148437.332031.332031zm0 0"/><path d="m2.644531 1.449219c-.730469 0-1.320312.589843-1.320312 1.320312v2.648438h1.320312v-1.984375c0-.367188.296875-.664063.664063-.664063h1.984375v-1.320312zm7.941407 0v1.320312h1.984374c.363282 0 .660157.296875.660157.664063v1.984375h1.324219v-2.648438c0-.730469-.589844-1.320312-1.324219-1.320312zm-9.261719 9.261719v2.644531c0 .734375.589843 1.324219 1.320312 1.324219h2.648438v-1.324219h-1.984375c-.367188 0-.664063-.296875-.664063-.660157v-1.984374zm11.90625 0v1.984374c0 .363282-.296875.660157-.660157.660157h-1.984374v1.324219h2.644531c.734375 0 1.324219-.589844 1.324219-1.324219v-2.644531zm0 0"/></g></svg>

<?xml version="1.0" encoding="UTF-8"?>
<svg xmlns="http://www.w3.org/2000/svg" xmlns:xlink="http://www.w3.org/1999/xlink" width="16px" height="16px" viewBox="0 0 16 16" version="1.1">
<g id="surface1">
<path style=" stroke:none;fill-rule:nonzero;fill:rgb(87.843138%,87.843138%,87.843138%);fill-opacity:1;" d="M 5.953125 7.402344 L 9.921875 7.402344 C 10.105469 7.402344 10.253906 7.550781 10.253906 7.734375 L 10.253906 8.394531 C 10.253906 8.578125 10.105469 8.726562 9.921875 8.726562 L 5.953125 8.726562 C 5.769531 8.726562 5.621094 8.578125 5.621094 8.394531 L 5.621094 7.734375 C 5.621094 7.550781 5.769531 7.402344 5.953125 7.402344 Z M 5.953125 7.402344 "/>
<path style=" stroke:none;fill-rule:nonzero;fill:rgb(87.843138%,87.843138%,87.843138%);fill-opacity:1;" d="M 8.601562 6.078125 L 8.601562 10.046875 C 8.601562 10.230469 8.453125 10.378906 8.269531 10.378906 L 7.609375 10.378906 C 7.425781 10.378906 7.277344 10.230469 7.277344 10.046875 L 7.277344 6.078125 C 7.277344 5.894531 7.425781 5.746094 7.609375 5.746094 L 8.269531 5.746094 C 8.453125 5.746094 8.601562 5.894531 8.601562 6.078125 Z M 8.601562 6.078125 "/>
<path style=" stroke:none;fill-rule:nonzero;fill:rgb(87.843138%,87.843138%,87.843138%);fill-opacity:1;" d="M 2.644531 1.449219 C 1.914062 1.449219 1.324219 2.039062 1.324219 2.769531 L 1.324219 5.417969 L 2.644531 5.417969 L 2.644531 3.433594 C 2.644531 3.066406 2.941406 2.769531 3.308594 2.769531 L 5.292969 2.769531 L 5.292969 1.449219 Z M 10.585938 1.449219 L 10.585938 2.769531 L 12.570312 2.769531 C 12.933594 2.769531 13.230469 3.066406 13.230469 3.433594 L 13.230469 5.417969 L 14.554688 5.417969 L 14.554688 2.769531 C 14.554688 2.039062 13.964844 1.449219 13.230469 1.449219 Z M 1.324219 10.710938 L 1.324219 13.355469 C 1.324219 14.089844 1.914062 14.679688 2.644531 14.679688 L 5.292969 14.679688 L 5.292969 13.355469 L 3.308594 13.355469 C 2.941406 13.355469 2.644531 13.058594 2.644531 12.695312 L 2.644531 10.710938 Z M 13.230469 10.710938 L 13.230469 12.695312 C 13.230469 13.058594 12.933594 13.355469 12.570312 13.355469 L 10.585938 13.355469 L 10.585938 14.679688 L 13.230469 14.679688 C 13.964844 14.679688 14.554688 14.089844 14.554688 13.355469 L 14.554688 10.710938 Z M 13.230469 10.710938 "/>
</g>
</svg>
